app/images/transaction-background-top.svg

<svg fill="none" height="54" viewBox="0 0 817 54" width="817" xmlns="http://www.w3.org/2000/svg" xmlns:xlink="http://www.w3.org/1999/xlink"><linearGradient id="a"><stop offset="0" stop-color="#75c3fc"/><stop offset="1" stop-color="#75c3fc"/></linearGradient><linearGradient id="b" gradientUnits="userSpaceOnUse" x1="308.177" x2="304.124" xlink:href="#a" y1="30.0684" y2="30.0684"/><linearGradient id="c" gradientUnits="userSpaceOnUse" x1="90.1014" x2="86.0481" xlink:href="#a" y1="2.27182" y2="2.27182"/><linearGradient id="d" gradientUnits="userSpaceOnUse" x1="125.31" x2="121.257" xlink:href="#a" y1="45.8958" y2="45.8958"/><linearGradient id="e" gradientUnits="userSpaceOnUse" x1="24.3728" x2="17.7968" xlink:href="#a" y1="26.8017" y2="26.5677"/><g opacity=".75"><path d="m720.209 36.4667c.053-.7327-.489-1.3783-1.222-1.448-2.952-.2268-4.629 1.0817-5.956 2.1285-1.223.9595-2.201 1.7097-4.105 1.5702-1.904-.1571-2.742-1.0468-3.808-2.1809-1.17-1.2387-2.602-2.7914-5.554-3.0357-2.952-.2268-4.628 1.0817-5.956 2.1285-1.222.9596-2.2 1.7098-4.104 1.5702-1.904-.157-2.742-1.0468-3.808-2.1808-1.17-1.2388-2.602-2.7915-5.554-3.0358-2.952-.2268-4.611 1.0817-5.956 2.1285-1.223.9596-2.201 1.7098-4.105 1.5702-.733-.0523-1.38.4885-1.449 1.2213-.07.7328.489 1.3783 1.222 1.4481 2.952.2268 4.611-1.0817 5.956-2.1285 1.223-.9596 2.201-1.7098 4.105-1.5702 1.904.157 2.742 1.0468 3.807 2.1808 1.171 1.2387 2.603 2.7915 5.555 3.0357 2.951.2269 4.611-1.0816 5.956-2.1285 1.222-.9595 2.2-1.7097 4.104-1.5702 1.904.1571 2.742 1.0468 3.808 2.1809 1.17 1.2387 2.602 2.7915 5.554 3.0357 2.952.2268 4.629-1.0817 5.956-2.1285 1.223-.9596 2.201-1.7098 4.105-1.5702.733.0698 1.379-.4711 1.449-1.2213z" fill="#fbc49d" opacity=".6"/><path d="m488.556 23.1411c.186 0 .372-.0496.534-.1488l14.302-8.4701c.348-.2108.546-.6076.509-1.0045-.05-.4092-.323-.7441-.708-.8681l-20.621-6.70908c-.385-.12401-.807-.0124-1.08.28523-.273.29764-.348.73168-.199 1.10372l6.319 15.17923c.112.2728.348.496.634.5828.099.0248.198.0496.31.0496zm11.807-9.2389-11.298 6.6967-4.991-11.9921z" fill="#75c4fd" opacity=".6"/><g fill="#86e29b"><path d="m599.843 19.6242c.227 0 .472-.0174.699-.0523 2.934-.3839 4.995-3.0706 4.628-6.0017-.192-1.4132-.908-2.6868-2.043-3.5591-1.135-.87236-2.55-1.25619-3.965-1.06427-1.415.19191-2.69.90723-3.563 2.04127-.873 1.134-1.258 2.5472-1.065 3.9604.366 2.7217 2.672 4.6757 5.309 4.6757zm.018-9.0548c.821 0 1.607.2617 2.253.7676.786.6107 1.292 1.483 1.415 2.46.262 2.0238-1.171 3.8906-3.197 4.1698-2.026.2617-3.895-1.169-4.174-3.1928-.122-.977.14-1.954.733-2.7391.612-.7851 1.485-1.2911 2.463-1.4132.175-.0523.35-.0523.507-.0523z" opacity=".6"/><path d="m789.426 33.0604h.14c5.467-.0698 9.869-4.5885 9.799-10.0493s-4.576-9.8574-10.061-9.7876c-5.467.0698-9.868 4.5885-9.798 10.0493.07 5.4259 4.506 9.7876 9.92 9.7876zm0-17.2548c4 0 7.301 3.2276 7.354 7.2404.052 4.0476-3.197 7.3799-7.249 7.4323-4.052.0698-7.388-3.1928-7.44-7.2404-.053-4.0477 3.196-7.38 7.248-7.4323z" opacity=".6"/></g></g><g opacity=".75"><path d="m169.843 29.6242c.228 0 .472-.0174.699-.0523 2.934-.3839 4.995-3.0706 4.629-6.0017-.192-1.4132-.909-2.6868-2.044-3.5591-1.135-.8724-2.55-1.2562-3.965-1.0643-1.414.1919-2.689.9073-3.563 2.0413-.873 1.134-1.257 2.5472-1.065 3.9604.367 2.7217 2.672 4.6757 5.309 4.6757zm.018-9.0548c.821 0 1.607.2617 2.253.7676.786.6107 1.293 1.483 1.415 2.46.262 2.0238-1.17 3.8906-3.196 4.1698-2.027.2617-3.895-1.169-4.175-3.1928-.122-.977.14-1.954.734-2.7391.611-.7851 1.484-1.2911 2.462-1.4132.175-.0523.35-.0523.507-.0523z" fill="#86e29b" opacity=".6"/><path d="m306.157 32.0974c-1.119 0-2.026-.9061-2.026-2.0238s.907-2.0238 2.026-2.0238 2.026.9061 2.026 2.0238-.907 2.0238-2.026 2.0238z" fill="url(#b)" opacity=".6"/><path d="m88.0759 4.28984c-1.119 0-2.0261-.9061-2.0261-2.02383 0-1.11772.9071-2.023822 2.0261-2.023822 1.1189 0 2.0261.906102 2.0261 2.023822 0 1.11773-.9072 2.02383-2.0261 2.02383z" fill="url(#c)" opacity=".6"/><path d="m123.285 47.9139c-1.119 0-2.026-.9061-2.026-2.0239 0-1.1177.907-2.0238 2.026-2.0238s2.026.9061 2.026 2.0238c0 1.1178-.907 2.0239-2.026 2.0239z" fill="url(#d)" opacity=".6"/><path d="m21.0915 29.9623c-1.8135 0-3.2836-1.4685-3.2836-3.28s1.4701-3.28 3.2836-3.28 3.2837 1.4685 3.2837 3.28-1.4702 3.28-3.2837 3.28z" fill="url(#e)" opacity=".75"/><path d="m379.426 53.0594h.14c5.467-.0698 9.869-4.5885 9.799-10.0493s-4.576-9.8574-10.061-9.7876c-5.467.0698-9.868 4.5885-9.798 10.0493.069 5.4259 4.506 9.7876 9.92 9.7876zm0-17.2548c4 0 7.301 3.2277 7.354 7.2404.052 4.0476-3.197 7.3799-7.249 7.4323-4.052.0698-7.388-3.1928-7.44-7.2404-.053-4.0476 3.196-7.3799 7.248-7.4323z" fill="#86e29b" opacity=".6"/></g></svg>

<svg width="817" height="54" viewBox="0 0 817 54" fill="none" xmlns="http://www.w3.org/2000/svg">
<g opacity="0.75">
<path opacity="0.6" d="M720.209 36.4667C720.262 35.734 719.72 35.0884 718.987 35.0187C716.035 34.7919 714.358 36.1004 713.031 37.1472C711.808 38.1067 710.83 38.8569 708.926 38.7174C707.022 38.5603 706.184 37.6706 705.118 36.5365C703.948 35.2978 702.516 33.7451 699.564 33.5008C696.612 33.274 694.936 34.5825 693.608 35.6293C692.386 36.5889 691.408 37.3391 689.504 37.1995C687.6 37.0425 686.762 36.1527 685.696 35.0187C684.526 33.7799 683.094 32.2272 680.142 31.9829C677.19 31.7561 675.531 33.0646 674.186 34.1114C672.963 35.071 671.985 35.8212 670.081 35.6816C669.348 35.6293 668.701 36.1701 668.632 36.9029C668.562 37.6357 669.121 38.2812 669.854 38.351C672.806 38.5778 674.465 37.2693 675.81 36.2225C677.033 35.2629 678.011 34.5127 679.915 34.6523C681.819 34.8093 682.657 35.6991 683.722 36.8331C684.893 38.0718 686.325 39.6246 689.277 39.8688C692.228 40.0957 693.888 38.7872 695.233 37.7403C696.455 36.7808 697.433 36.0306 699.337 36.1701C701.241 36.3272 702.079 37.2169 703.145 38.351C704.315 39.5897 705.747 41.1425 708.699 41.3867C711.651 41.6135 713.328 40.305 714.655 39.2582C715.878 38.2986 716.856 37.5484 718.76 37.688C719.493 37.7578 720.139 37.2169 720.209 36.4667Z" fill="#FBC49D"/>
<path opacity="0.6" d="M488.556 23.1411C488.742 23.1411 488.928 23.0915 489.09 22.9923L503.392 14.5222C503.74 14.3114 503.938 13.9146 503.901 13.5177C503.851 13.1085 503.578 12.7736 503.193 12.6496L482.572 5.94052C482.187 5.81651 481.765 5.92812 481.492 6.22575C481.219 6.52339 481.144 6.95743 481.293 7.32947L487.612 22.5087C487.724 22.7815 487.96 23.0047 488.246 23.0915C488.345 23.1163 488.444 23.1411 488.556 23.1411ZM500.363 13.9022L489.065 20.5989L484.074 8.6068L500.363 13.9022Z" fill="#75C4FD"/>
<path opacity="0.6" d="M599.843 19.6242C600.07 19.6242 600.315 19.6068 600.542 19.5719C603.476 19.188 605.537 16.5013 605.17 13.5702C604.978 12.157 604.262 10.8834 603.127 10.0111C601.992 9.13874 600.577 8.75491 599.162 8.94683C597.747 9.13874 596.472 9.85406 595.599 10.9881C594.726 12.1221 594.341 13.5353 594.534 14.9485C594.9 17.6702 597.206 19.6242 599.843 19.6242ZM599.861 10.5694C600.682 10.5694 601.468 10.8311 602.114 11.337C602.9 11.9477 603.406 12.82 603.529 13.797C603.791 15.8208 602.358 17.6876 600.332 17.9668C598.306 18.2285 596.437 16.7978 596.158 14.774C596.036 13.797 596.298 12.82 596.891 12.0349C597.503 11.2498 598.376 10.7438 599.354 10.6217C599.529 10.5694 599.704 10.5694 599.861 10.5694Z" fill="#86E29B"/>
<path opacity="0.6" d="M789.426 33.0604C789.479 33.0604 789.514 33.0604 789.566 33.0604C795.033 32.9906 799.435 28.4719 799.365 23.0111C799.295 17.5503 794.789 13.1537 789.304 13.2235C783.837 13.2933 779.436 17.812 779.506 23.2728C779.576 28.6987 784.012 33.0604 789.426 33.0604ZM789.426 15.8056C793.426 15.8056 796.727 19.0332 796.78 23.046C796.832 27.0936 793.583 30.4259 789.531 30.4783C785.479 30.5481 782.143 27.2855 782.091 23.2379C782.038 19.1902 785.287 15.8579 789.339 15.8056C789.357 15.8056 789.392 15.8056 789.426 15.8056Z" fill="#86E29B"/>
</g>
<g opacity="0.75">
<path opacity="0.6" d="M169.843 29.6242C170.071 29.6242 170.315 29.6068 170.542 29.5719C173.476 29.188 175.537 26.5013 175.171 23.5702C174.979 22.157 174.262 20.8834 173.127 20.0111C171.992 19.1387 170.577 18.7549 169.162 18.9468C167.748 19.1387 166.473 19.8541 165.599 20.9881C164.726 22.1221 164.342 23.5353 164.534 24.9485C164.901 27.6702 167.206 29.6242 169.843 29.6242ZM169.861 20.5694C170.682 20.5694 171.468 20.8311 172.114 21.337C172.9 21.9477 173.407 22.82 173.529 23.797C173.791 25.8208 172.359 27.6876 170.333 27.9668C168.306 28.2285 166.438 26.7978 166.158 24.774C166.036 23.797 166.298 22.82 166.892 22.0349C167.503 21.2498 168.376 20.7438 169.354 20.6217C169.529 20.5694 169.704 20.5694 169.861 20.5694Z" fill="#86E29B"/>
<path opacity="0.6" d="M306.157 32.0974C305.038 32.0974 304.131 31.1913 304.131 30.0736C304.131 28.9559 305.038 28.0498 306.157 28.0498C307.276 28.0498 308.183 28.9559 308.183 30.0736C308.183 31.1913 307.276 32.0974 306.157 32.0974Z" fill="url(#paint0_linear_482_3306)"/>
<path opacity="0.6" d="M88.0759 4.28984C86.9569 4.28984 86.0498 3.38374 86.0498 2.26601C86.0498 1.14829 86.9569 0.242188 88.0759 0.242188C89.1948 0.242188 90.102 1.14829 90.102 2.26601C90.102 3.38374 89.1948 4.28984 88.0759 4.28984Z" fill="url(#paint1_linear_482_3306)"/>
<path opacity="0.6" d="M123.285 47.9139C122.166 47.9139 121.259 47.0078 121.259 45.89C121.259 44.7723 122.166 43.8662 123.285 43.8662C124.404 43.8662 125.311 44.7723 125.311 45.89C125.311 47.0078 124.404 47.9139 123.285 47.9139Z" fill="url(#paint2_linear_482_3306)"/>
<path opacity="0.75" d="M21.0915 29.9623C19.278 29.9623 17.8079 28.4938 17.8079 26.6823C17.8079 24.8708 19.278 23.4023 21.0915 23.4023C22.905 23.4023 24.3752 24.8708 24.3752 26.6823C24.3752 28.4938 22.905 29.9623 21.0915 29.9623Z" fill="url(#paint3_linear_482_3306)"/>
<path opacity="0.6" d="M379.426 53.0594C379.479 53.0594 379.514 53.0594 379.566 53.0594C385.033 52.9896 389.435 48.4709 389.365 43.0101C389.295 37.5493 384.789 33.1527 379.304 33.2225C373.837 33.2923 369.436 37.811 369.506 43.2718C369.575 48.6977 374.012 53.0594 379.426 53.0594ZM379.426 35.8046C383.426 35.8046 386.727 39.0323 386.78 43.045C386.832 47.0926 383.583 50.4249 379.531 50.4773C375.479 50.5471 372.143 47.2845 372.091 43.2369C372.038 39.1893 375.287 35.857 379.339 35.8046C379.357 35.8046 379.392 35.8046 379.426 35.8046Z" fill="#86E29B"/>
</g>
<defs>
<linearGradient id="paint0_linear_482_3306" x1="308.177" y1="30.0684" x2="304.124" y2="30.0684" gradientUnits="userSpaceOnUse">
<stop stop-color="#75C3FC"/>
<stop offset="1" stop-color="#75C3FC"/>
</linearGradient>
<linearGradient id="paint1_linear_482_3306" x1="90.1014" y1="2.27182" x2="86.0481" y2="2.27182" gradientUnits="userSpaceOnUse">
<stop stop-color="#75C3FC"/>
<stop offset="1" stop-color="#75C3FC"/>
</linearGradient>
<linearGradient id="paint2_linear_482_3306" x1="125.31" y1="45.8958" x2="121.257" y2="45.8958" gradientUnits="userSpaceOnUse">
<stop stop-color="#75C3FC"/>
<stop offset="1" stop-color="#75C3FC"/>
</linearGradient>
<linearGradient id="paint3_linear_482_3306" x1="24.3728" y1="26.8017" x2="17.7968" y2="26.5677" gradientUnits="userSpaceOnUse">
<stop stop-color="#75C3FC"/>
<stop offset="1" stop-color="#75C3FC"/>
</linearGradient>
</defs>
</svg>
